assets/svg/pencil.svg

<svg width="12" height="12" viewBox="0 0 12 12" fill="none" xmlns="http://www.w3.org/2000/svg">
<path d="M11.0981 3.10827C10.6795 3.52693 10.4702 3.73626 10.2506 3.77677C10.0309 3.81728 9.88682 3.67315 9.59856 3.3849L8.61511 2.40144C8.32686 2.11319 8.18273 1.96906 8.22324 1.74946C8.26375 1.52985 8.47308 1.32052 8.89174 0.901864L9.11838 0.675215C9.53704 0.25656 9.74637 0.0472318 9.96598 0.00672082C10.1856 -0.0337902 10.3297 0.110336 10.618 0.398589L11.6014 1.38204C11.8897 1.6703 12.0338 1.81442 11.9933 2.03403C11.9528 2.25364 11.7434 2.46297 11.3248 2.88162L11.0981 3.10827Z" fill="#4B85FA"/>
<path d="M0.954058 11.9107C0.454198 12.0029 0.204269 12.049 0.077628 11.9224C-0.0490128 11.7957 -0.00290857 11.5458 0.0893002 11.0459L0.311753 9.84003C0.35173 9.62332 0.371719 9.51497 0.43005 9.41009C0.488381 9.30521 0.579134 9.21446 0.76064 9.03295L6.31438 3.47921C6.73303 3.06056 6.94236 2.85123 7.16197 2.81072C7.38158 2.77021 7.5257 2.91433 7.81396 3.20259L8.79741 4.18604C9.08566 4.4743 9.22979 4.61842 9.18928 4.83803C9.14877 5.05764 8.93944 5.26697 8.52078 5.68562L2.96705 11.2394C2.78554 11.4209 2.69479 11.5116 2.58991 11.5699C2.48503 11.6283 2.37668 11.6483 2.15997 11.6882L0.954058 11.9107Z" fill="#4B85FA"/>
</svg>

<svg xmlns="http://www.w3.org/2000/svg" width="12" height="12" viewBox="0 0 12 12"><path d="M11.098 3.108c-.418.419-.628.628-.847.669-.22.04-.364-.104-.652-.392L8.615 2.4c-.288-.288-.432-.432-.392-.652s.25-.428.669-.847l.226-.227c.419-.418.628-.628.848-.668s.364.103.652.392l.983.983c.289.288.433.432.392.652s-.25.429-.668.848zM.954 11.91c-.5.093-.75.139-.876.012-.127-.126-.08-.376.011-.876L.312 9.84c.04-.217.06-.325.118-.43s.15-.196.33-.377l5.554-5.554c.419-.418.628-.628.848-.668s.364.103.652.392l.983.983c.289.288.433.432.392.652s-.25.429-.668.848l-5.554 5.553c-.181.182-.272.273-.377.33-.105.06-.213.08-.43.12z"/></svg>
